X: 28775
T: My Love Is Fair And Handsome
R: reel
M: 4/4
K: Amajor
E2EF AB c/B/A|eA c/B/A BF ~F2|E2EF AB cA|BF ~F2 BFAF|
E2,CEA,2CE|dBcA BAFE|,CE ~E2 AB c/B/A|BA^GB ABcd||
e2cA EAcA|eA c/B/A BF~F2|ec ~c2 ac ~c2|ecBc BAFA|
ec ~c2 ac ~c2|ecBc BAFA|a2ae fgaf|edcA BFAF||

